dog-side.svg

<svg fill="currentColor" viewBox="0 0 24 24"><path d="m19 3-4 4 3 3 1-1 1 1 2-2-3-3zM3 7 2 8l3 3v3l-1 1v6h2v-3l2-3h7v6h2V11l-3-3-1 1H5z"/></svg>

<svg  viewBox="0 0 24 24" fill="currentColor"><path  d="M19,3L15,7L18,10L19,9L20,10L22,8L19,5V3M3,7L2,8L5,11V14L4,15V21H6V18L8,15H15V21H17V11L14,8L13,9H5L3,7Z"/></svg>
